src/static/unknown.svg

<svg
  width="25"
  height="24"
  viewBox="0 0 25 24"
  fill="none"
  xmlns="http://www.w3.org/2000/svg"
>
  <path
    fill-rule="evenodd"
    clip-rule="evenodd"
    d="M23 12C23 17.799 18.299 22.5 12.5 22.5C6.70101 22.5 2 17.799 2 12C2 6.20101 6.70101 1.5 12.5 1.5C18.299 1.5 23 6.20101 23 12ZM12.5 14.6795C12.2239 14.6795 12 14.4556 12 14.1795V12.3846C12 12.0089 12.3002 11.7346 12.6356 11.7138C13.1571 11.6814 13.6198 11.4636 13.9535 11.1356C14.296 10.7988 14.5 10.3492 14.5 9.85899C14.5 8.85927 13.6323 8.00002 12.5 8.00002C12.2335 8.00002 11.9701 8.04959 11.7253 8.14528C11.4805 8.24096 11.2599 8.3805 11.0754 8.55461C10.8909 8.72866 10.7463 8.93371 10.6481 9.15723C10.55 9.38067 10.5 9.61903 10.5 9.85899C10.5 10.1351 10.2761 10.359 10 10.359C9.72386 10.359 9.5 10.1351 9.5 9.85899C9.5 9.47938 9.57928 9.10425 9.73247 8.75527C9.88562 8.40639 10.1093 8.09133 10.3891 7.82728C10.6689 7.56329 10.9994 7.35531 11.3613 7.21389C11.7231 7.07248 12.1099 7.00002 12.5 7.00002C14.1291 7.00002 15.5 8.25307 15.5 9.85899C15.5 10.6365 15.1742 11.3377 14.6546 11.8487C14.2177 12.2782 13.6421 12.5756 13 12.6784V14.1795C13 14.4556 12.7761 14.6795 12.5 14.6795ZM13.0493 15.9C13.0493 15.5682 12.7788 15.3 12.4478 15.3C12.1168 15.3 11.8493 15.5682 11.8493 15.9C11.8493 16.2318 12.1168 16.5 12.4478 16.5H12.4538C12.7842 16.5 13.0493 16.2318 13.0493 15.9Z"
    fill="#DADADA"
  />
</svg>

<svg xmlns="http://www.w3.org/2000/svg" width="25" height="24" fill="none"><path fill="#DADADA" fill-rule="evenodd" d="M23 12c0 5.799-4.701 10.5-10.5 10.5S2 17.799 2 12 6.701 1.5 12.5 1.5 23 6.201 23 12Zm-10.5 2.68a.5.5 0 0 1-.5-.5v-1.795c0-.376.3-.65.636-.671.521-.033.984-.25 1.318-.578.342-.337.546-.787.546-1.277 0-1-.868-1.859-2-1.859-.267 0-.53.05-.775.145a2.015 2.015 0 0 0-.65.41c-.184.174-.329.379-.427.602a1.744 1.744 0 0 0-.148.702.5.5 0 0 1-1 0c0-.38.08-.755.232-1.104.154-.349.377-.664.657-.928s.61-.472.972-.613A3.13 3.13 0 0 1 12.5 7c1.63 0 3 1.253 3 2.859 0 .777-.326 1.479-.845 1.99a3.045 3.045 0 0 1-1.655.83v1.5a.5.5 0 0 1-.5.5Zm.55 1.22a.601.601 0 1 0-.602.6h.006c.33 0 .595-.268.595-.6Z" clip-rule="evenodd"/></svg>
